lib/brands/icons/ethereum.svg

<svg xmlns="http://www.w3.org/2000/svg" fill="none" aria-hidden="true" viewBox="0 0 48 48"><g id="ethereum-Icon"><ellipse id="Ellipse 1" cx="24" cy="24" fill="#6481E7" rx="24" ry="24"/><path id="Vector" fill="white" fill-rule="evenodd" d="M13.5146 24.9764L24.2802 31.3406V7.11316L13.5146 24.9764Z" clip-rule="evenodd"/><path id="Vector_2" fill="#C1CCF5" fill-rule="evenodd" d="M24.2812 7.11316V31.3406L35.0468 24.9764L24.2812 7.11316Z" clip-rule="evenodd"/><path id="Vector_3" fill="#8299EC" fill-rule="evenodd" d="M24.2809 20.0836L13.5146 24.9764L24.2802 31.3405L35.0464 24.9771L24.2809 20.0836Z" clip-rule="evenodd"/><path id="Vector_4" fill="#C1CCF5" fill-rule="evenodd" d="M24.2809 20.0836L13.5146 24.9764L24.2802 31.3405L24.2809 20.0836Z" clip-rule="evenodd"/><path id="Vector_5" fill="white" fill-rule="evenodd" d="M13.5146 27.0183L24.2802 42.1895V33.3789L13.5146 27.0183Z" clip-rule="evenodd"/><path id="Vector_6" fill="#C1CCF5" fill-rule="evenodd" d="M24.2812 33.3789V42.1902L35.0539 27.0183L24.2812 33.3789Z" clip-rule="evenodd"/></g></svg>

<svg xmlns="http://www.w3.org/2000/svg" fill="none" aria-hidden="true" viewBox="0 0 48 48"><circle cx="24" cy="24" r="24" fill="#6481E7"/><path fill="#fff" fill-rule="evenodd" d="m13.515 24.976 10.766 6.365V7.113L13.515 24.976Z" clip-rule="evenodd"/><path fill="#C1CCF5" fill-rule="evenodd" d="M24.282 7.113v24.228l10.765-6.365L24.282 7.113Z" clip-rule="evenodd"/><path fill="#8299EC" fill-rule="evenodd" d="m24.281 20.084-10.766 4.892 10.766 6.364 10.766-6.363-10.766-4.893Z" clip-rule="evenodd"/><path fill="#C1CCF5" fill-rule="evenodd" d="m24.281 20.084-10.766 4.892 10.766 6.364V20.084Z" clip-rule="evenodd"/><path fill="#fff" fill-rule="evenodd" d="M13.515 27.018 24.281 42.19v-8.811l-10.766-6.36Z" clip-rule="evenodd"/><path fill="#C1CCF5" fill-rule="evenodd" d="M24.282 33.379v8.811l10.772-15.172-10.773 6.36Z" clip-rule="evenodd"/></svg>
